packages/katcn/src/icons/svg/searchFolder.svg

<svg width="24" height="25" viewBox="0 0 24 25" fill="none" xmlns="http://www.w3.org/2000/svg">
<path fill-rule="evenodd" clip-rule="evenodd" d="M2 6.85219C2 4.89332 3.51277 3.28809 5.48619 3.28809H8.96685C10.0949 3.28809 11.1746 3.68204 11.9849 4.62917L13.1489 5.74962H18.5138C20.4872 5.74962 22 7.35486 22 9.31373V17.724C22 19.6829 20.4872 21.2881 18.5138 21.2881H5.48619C3.51277 21.2881 2 19.6829 2 17.724V6.85219ZM5.48619 5.28809C4.67507 5.28809 4 5.93926 4 6.85219V17.724C4 18.6369 4.67507 19.2881 5.48619 19.2881H18.5138C19.3249 19.2881 20 18.6369 20 17.724V9.31373C20 8.4008 19.3249 7.74962 18.5138 7.74962H12.7459C12.4872 7.74962 12.2387 7.64943 12.0524 7.47008L10.5606 6.03418C10.534 6.00851 10.5087 5.98137 10.4851 5.9529C10.1061 5.49695 9.61099 5.28809 8.96685 5.28809H5.48619Z" fill="black"/>
<path fill-rule="evenodd" clip-rule="evenodd" d="M10.3178 11.495C9.65394 12.1588 9.65394 13.2352 10.3178 13.8991C10.9817 14.563 12.0581 14.563 12.722 13.8991C13.3858 13.2352 13.3858 12.1588 12.722 11.495C12.0581 10.8311 10.9817 10.8311 10.3178 11.495ZM8.90362 15.3133C7.4587 13.8684 7.4587 11.5257 8.90362 10.0808C10.3485 8.63583 12.6912 8.63583 14.1362 10.0808C15.5811 11.5257 15.5811 13.8684 14.1362 15.3133C12.6912 16.7582 10.3485 16.7582 8.90362 15.3133Z" fill="black"/>
<path fill-rule="evenodd" clip-rule="evenodd" d="M12.674 13.9004C13.0539 13.4995 13.6868 13.4824 14.0877 13.8622L15.9877 15.6622C16.3887 16.042 16.4058 16.6749 16.0259 17.0759C15.6461 17.4768 15.0132 17.4939 14.6123 17.1141L12.7123 15.3141C12.3113 14.9343 12.2942 14.3013 12.674 13.9004Z" fill="black"/>
</svg>

<svg xmlns="http://www.w3.org/2000/svg" fill="none" viewBox="0 0 24 25"><path fill="#000" fill-rule="evenodd" d="M2 6.852c0-1.959 1.513-3.564 3.486-3.564h3.48c1.129 0 2.209.394 3.019 1.341l1.164 1.12h5.365C20.487 5.75 22 7.356 22 9.315v8.41c0 1.959-1.513 3.564-3.486 3.564H5.486C3.513 21.288 2 19.683 2 17.724zm3.486-1.564C4.676 5.288 4 5.94 4 6.852v10.872c0 .913.675 1.564 1.486 1.564h13.028c.81 0 1.486-.651 1.486-1.564v-8.41c0-.913-.675-1.564-1.486-1.564h-5.768a1 1 0 0 1-.694-.28l-1.491-1.436a1 1 0 0 1-.076-.081c-.379-.456-.874-.665-1.518-.665z" clip-rule="evenodd"/><path fill="#000" fill-rule="evenodd" d="M10.318 11.495a1.7 1.7 0 1 0 2.404 2.404 1.7 1.7 0 0 0-2.404-2.404m-1.414 3.818a3.7 3.7 0 1 1 5.232-5.232 3.7 3.7 0 0 1-5.232 5.232" clip-rule="evenodd"/><path fill="#000" fill-rule="evenodd" d="M12.674 13.9a1 1 0 0 1 1.414-.038l1.9 1.8a1 1 0 1 1-1.376 1.452l-1.9-1.8a1 1 0 0 1-.038-1.414" clip-rule="evenodd"/></svg>
